X:1
T:Wachet auf, ruft uns die Stimme
T:UA
T:Michael Praetorius
T:Michael Praetorius: Wachet auf, ruft uns die Stimme
T:#
T:Chor 1 Cantus
T:Chor 1, Cantus
L:1/8
M:4/2
K:C
V:1 treble nm="Cantus 1"
V:1
 z8 z8 | z2{!stemless![De]} c2 e4- e4 d4 | d8- d8 | d8-"^5" d8 | z4 G4[K:treble] B4 d6 | %5
w: |ruft uns * die|Stim- *|me, *|wa- chet auf,|
 z2 d2 d2 d2 e4 d4 | e8 d8 | z2 D4 ^F2 A8 | z4 z2 G2-[K:treble]"^10" G2 d2 e4 | z2 c4 c2 e8 | %10
w: ruft uns die Stim- *|* me,|wa- chet auf,|wa- \- chet auf,|wa- chet auf,|
 z8 z8 | z2 c2 e4- e4 d4 | d8-[K:treble] d8 | B6 d2"^15" e4 d4 | c2 c2 B2 G2 A2 G2 A4 | B4 z4 z8 | %16
w: |ruft uns * die|Stim- \-|me der Wäch- ter|sehr hoch auf der Zin \- *|ne,|
 z4 z2 d2[K:treble] e4 d4 | c4 B4 A2 B2 c8 | z4 B4"^20" c2 G2 B4 | z2 d2 d4 z4 z2 G2 | %20
w: wach auf, du|Stadt Je- ru * *|sa- lem, wach auf,|wach auf, wach|
 c4 z4[K:treble] z2 G2 d2 d2 | c4 c4 d2 c2 c8 | z4 B4 c8 | z2 G2 c4"^25" B2 B2 B2 B2 | %24
w: auf, wach auf, du|Stadt Je- ru * *|sa- lem.|Mit- ter- nacht heißt die- se|
 A2 B2 c4[K:treble] B8 | z4 B4 c4 B4 | z8 z8 | z2 G2 d4 B8 | z2 c2 d4-[K:treble]"^30" d4 B4 | %29
w: Stun \- * de,|sie ru- fen,||wo seid ihr,|wo seid \_\_\_ ihr,|
 z2 d2 c4 B4 z2 B2 | d4 A4 A2 c4 c2 | d2 c2 c4-[K:treble] c4 B2 A2 | B4 B4 c8 | z8"^35" z8 | %34
w: wo seid ihr, wo|seid ihr, wo seid ihr|klu- gen Jung- \- * *|* frau- en?||
 z4 z2 d2 d3 c B3 A | G2 d2 d3 c B3 A G2 d2 | d3 c B3 A G4 z4 | z8"^40" z4 A6 | %38
w: steht auf, die Lam- pen|nehmt. Nun komm, du wer- te Kron, o|Je- su, Got- tes Sohn.|Hal-|
 z2 B2 c4[K:treble] B8 | z8 z4 A8 | z4 B4 c8 | B8 z8 |"^45" z8 G2 AB c2 c2- | c2 B2 A4 B8 | %44
w: le- lu- ja,|hal-|le- lu-|ja.|Macht euch be- reit zu|\_\_ der Hoch- zeit,|
 z8 A2 Bc d2 d2- | d2 c2 B4 ^c8 | z8[K:treble]"^50" z8 | z2 B4 d2 c4 B4 | z8 z2 B4 e2 | d4 c4 z8 | %50
w: macht euch be- reit zu|* der Hoch- zeit,||zu der Hoch- zeit,|zu der|Hoch- zeit.|
 z4 G4 c8- |"^55" c4 c4 c8- | c4 B4 A8 | c12 B2 A2 | B8 c8 |] %55
w: Ihr müs-|\- set ihm|* ent- ge-|gen * *|* gehn.|

